svgs/scholarxiv.svg

<svg width="192" height="192" viewBox="0 0 192 192" fill="none" xmlns="http://www.w3.org/2000/svg">
<path d="M96.0006 68.7558C92.0436 70.7327 88.0308 72.8886 84.0008 75.2153C79.9707 77.5421 76.0972 79.9393 72.4066 82.3778C65.6526 86.8403 59.5111 91.4409 54.1441 96.0001C36.6877 110.829 27.4231 125.22 31.9149 133C34.7187 137.856 42.4332 139.359 53.0815 137.929M96.0006 68.7558C88.7591 65.138 81.7043 62.1197 75.0726 59.7513C53.5019 52.0478 36.4064 51.2199 31.9146 59C29.1124 63.8535 31.6639 71.2798 38.218 79.7802M96.0006 68.7558C103.242 65.1379 110.297 62.1195 116.929 59.7511C112.815 37.2189 104.984 22 96.0009 22C90.3963 22 85.2405 27.9233 81.1559 37.8504M116.595 84.3781L75.4067 107.622M96.0006 123.244C99.9577 121.267 103.971 119.111 108.001 116.785C112.031 114.458 115.904 112.061 119.595 109.622C148.317 90.645 165.959 69.1719 160.087 58.9999C157.283 54.1434 149.568 52.6411 138.919 54.0715M96.0006 123.244C103.242 126.862 110.297 129.881 116.929 132.249C138.499 139.952 155.595 140.78 160.086 133C162.889 128.146 160.337 120.72 153.782 112.219M96.0006 123.244C88.7591 126.862 81.7043 129.88 75.0726 132.249C79.1865 154.781 87.0173 170 96.0008 170C101.605 170 106.761 164.077 110.846 154.149" stroke="black" stroke-width="12" stroke-linecap="round" stroke-linejoin="round"/>
<path d="M111.748 47.2402C107.885 47.1053 104.863 43.8646 104.998 40.0019C105.133 36.1392 108.374 33.1172 112.236 33.2521C116.099 33.387 119.121 36.6277 118.986 40.4904C118.851 44.3531 115.611 47.3751 111.748 47.2402Z" stroke="black" stroke-width="8"/>
<path d="M142.473 134.436C144.288 137.848 142.992 142.086 139.579 143.9C136.167 145.715 131.929 144.419 130.115 141.007C128.3 137.594 129.596 133.357 133.009 131.542C136.421 129.728 140.659 131.023 142.473 134.436Z" stroke="black" stroke-width="8"/>
<path d="M45.9049 106.746C47.7195 110.159 46.4239 114.397 43.0113 116.211C39.5986 118.026 35.3611 116.73 33.5466 113.317C31.732 109.905 33.0276 105.667 36.4402 103.853C39.8529 102.038 44.0904 103.334 45.9049 106.746Z" stroke="black" stroke-width="8"/>
</svg>

<svg width="192" height="192" fill="none" xmlns="http://www.w3.org/2000/svg"><path d="M96 68.756a226.441 226.441 0 0 0-12 6.46 226.407 226.407 0 0 0-11.593 7.162C65.653 86.84 59.51 91.44 54.144 96c-17.456 14.829-26.72 29.22-22.23 37 2.805 4.856 10.52 6.359 21.167 4.929m42.92-69.173c-7.242-3.618-14.297-6.636-20.928-9.005C53.502 52.048 36.406 51.22 31.915 59c-2.803 4.853-.251 12.28 6.303 20.78m57.783-11.024c7.241-3.618 14.296-6.636 20.928-9.005C112.815 37.22 104.984 22 96.001 22c-5.605 0-10.76 5.923-14.845 15.85m35.439 46.528-41.188 23.244M96 123.244a226.986 226.986 0 0 0 12-6.459 226.41 226.41 0 0 0 11.594-7.163c28.722-18.977 46.364-40.45 40.492-50.622-2.804-4.857-10.519-6.359-21.168-4.928M96 123.244c7.241 3.618 14.296 6.637 20.928 9.005 21.57 7.703 38.666 8.531 43.157.751 2.803-4.854.251-12.28-6.304-20.781M96 123.244c-7.242 3.618-14.297 6.636-20.928 9.005C79.187 154.781 87.017 170 96 170c5.604 0 10.76-5.923 14.845-15.851" stroke="#000" stroke-width="12" stroke-linecap="round" stroke-linejoin="round"/><path d="M111.826 44.997a5 5 0 1 1 .349-9.995 5 5 0 0 1-.349 9.995Zm28.588 89.656a5 5 0 1 1-8.83 4.693 5 5 0 0 1 8.83-4.693Zm-96-27a5 5 0 1 1-8.828 4.694 5 5 0 0 1 8.828-4.694Z" stroke="#000" stroke-width="10"/></svg>
